X: 7437
T:Mets\"akukka
R:Waltz
O:Finland
M:3/4
K:Gm
D2 G3A|B2A2 G2|d6|dc BA GF|\
D2 G3A|B2A2 G2|e6|e2 d2 c2|\
A3B cd|e2 d3^c|d4 B2|G4 D2|\
(3FGF ^C2 D2|B4 A2|G2zA G^F|1 G6 :|2 G2||\
g2^f2|\
=f3f ff|f2g2 ze|d4dd|d2 e2 d2|\
c3c cc|c2e2 g2|(d6|d2)B2 c2|\
d3d dd|d2 c2 B2|(A6|A4) zD|\
(3DED ^C2D2|B4 A2|G2zA G^F|G2::\
zg g^f|\
g3d d^c|d3B BA|B3G G^F|G2B2 d2|\
e3e ee|e2f2g2|(d6 |d4) DD|\
D2^F3G|A4 DD|D2G3A|B4 zD|\
(3DED ^C2D2|B4 A2|G2zA G^F|G2:|
